X:215
T:George White's Favourite
T:Carrowcastle Lasses
R:reel
H:Also played in G, #472
H:I first heard the D version from Elisabet Brogeby
D:Matt Molloy & Sean Keane: Contentment is Wealth
D:Kevin Crawford: 'd' flute album
Z:id:hn-reel-789
M:C|
%F:http://www2.redhawk.org/irish/Norbeck/hnr7.abc 2004-01-11 16:44:52 UT
K:D
|:BF~F2 BFAF|EDEF DB,A,B,|DF~F2 BF~F2|BFAF E2FA|
BF~F2 BFAF|EDEF DB,A,B,|DEFA dBAF|EDEF D4:|
|:dBAB defe|d2ef dBAF|ABde fded|Beed e2de|
fdBd ~A3B|d2AB defe|d2cA BFAF|EDEF D4:|
K:G
|:eB~B2 eBdB | AGAB GEDE | GB ~B2 eB ~B2 | eBdB A2 Bd |
eB ~B2 eBdB | AGAB GEDE | GABd gedB | AGAB G4 :|
|: gede gaba  | g2 ab gedB | dega bgag | eaag a2 ga | 
bgeg ~d3 e | g2 de gaba | g2 fd eBdB | AGAB G4 :|
